src/images/uber-white.svg

<?xml version="1.0" encoding="UTF-8"?>
<svg width="99px" height="35px" viewBox="0 0 99 35" version="1.1" xmlns="http://www.w3.org/2000/svg" xmlns:xlink="http://www.w3.org/1999/xlink">
    <!-- Generator: Sketch 55.2 (78181) - https://sketchapp.com -->
    <title>uber</title>
    <desc>Created with Sketch.</desc>
    <g id="Page-1" stroke="none" stroke-width="1" fill="none" fill-rule="evenodd">
        <g id="07.-Customers" transform="translate(-525.000000, -1701.000000)" fill="#FFFFFF" fill-rule="nonzero">
            <g id="uber" transform="translate(525.000000, 1701.000000)">
                <path d="M5.6952233,24.9792391 C6.11354369,26.1091304 6.69269903,27.0752174 7.43279612,27.8775 C8.1728932,28.6798913 9.04968932,29.293913 10.0631845,29.7196739 C11.0767864,30.1454348 12.1788155,30.3582609 13.3693786,30.3582609 C14.5277961,30.3582609 15.613699,30.1371739 16.627301,29.695 C17.6409029,29.2528261 18.5257087,28.6306522 19.2818252,27.8283696 C20.0379417,27.0259783 20.6252136,26.0681522 21.043534,24.9546739 C21.4618544,23.8411957 21.6709612,22.5968478 21.6709612,21.2213043 L21.6709612,0 L26.7387573,0 L26.7387573,34.3863043 L21.719233,34.3863043 L21.719233,31.1932609 C20.593068,32.4048913 19.265699,33.3382609 17.7373398,33.9933696 C16.2088738,34.6482609 14.5599417,34.9757609 12.7902233,34.9757609 C10.9882524,34.9757609 9.30706796,34.656413 7.74645631,34.0178261 C6.18595146,33.3792391 4.8344466,32.4705435 3.69226214,31.2915217 C2.55007767,30.1125 1.64903883,28.6963043 0.989466019,27.0423913 C0.329786408,25.388587 0,23.5465217 0,21.5159783 L0,0 L5.06779612,0 L5.06779612,21.2213043 C5.06779612,22.5968478 5.27690291,23.8493478 5.6952233,24.9792391 Z" id="Path"></path>
                <path d="M35.4742524,0 L35.4742524,12.526413 C36.6004175,11.3802174 37.9036505,10.4715217 39.3837379,9.8001087 C40.8638252,9.12869565 42.4727087,8.79304348 44.2101748,8.79304348 C46.0121456,8.79304348 47.701233,9.13684783 49.2779709,9.82456522 C50.8546019,10.5122826 52.2220194,11.4456522 53.3804369,12.6246739 C54.5388544,13.8036957 55.4559126,15.1954348 56.1316117,16.8001087 C56.8073107,18.4048913 57.1451068,20.1078261 57.1451068,21.9090217 C57.1451068,23.7101087 56.8073107,25.4048913 56.1316117,26.9931522 C55.4559126,28.5815217 54.5388544,29.9652174 53.3804369,31.1440217 C52.2220194,32.3230435 50.8546019,33.256413 49.2779709,33.9441304 C47.701233,34.6318478 46.0120388,34.9756522 44.2101748,34.9756522 C42.4726019,34.9756522 40.8558155,34.64 39.3596019,33.968587 C37.8633883,33.2972826 36.5521456,32.3884783 35.4259806,31.2422826 L35.4259806,34.3861957 L30.5995437,34.3861957 L30.5995437,0 L35.4742524,0 Z M36.0292718,25.2984783 C36.4636117,26.3465217 37.0670097,27.2634783 37.8392524,28.0494565 C38.6114951,28.8354348 39.5124272,29.4577174 40.5420485,29.9161957 C41.5717767,30.3746739 42.6818155,30.603913 43.8723786,30.603913 C45.0307961,30.603913 46.1247087,30.3746739 47.1543301,29.9161957 C48.1839515,29.4577174 49.076767,28.8355435 49.8330971,28.0494565 C50.5892136,27.263587 51.1925049,26.3465217 51.6429709,25.2984783 C52.0934369,24.2505435 52.3186699,23.1207609 52.3186699,21.9090217 C52.3186699,20.6972826 52.0934369,19.5592391 51.6429709,18.4948913 C51.1925049,17.4305435 50.5892136,16.5054348 49.8330971,15.7194565 C49.0768738,14.933587 48.1840583,14.3194565 47.1543301,13.8773913 C46.1246019,13.4353261 45.0306893,13.2141304 43.8723786,13.2141304 C42.714068,13.2141304 41.6200485,13.4352174 40.5904272,13.8773913 C39.5608058,14.3195652 38.6598738,14.933587 37.8875243,15.7194565 C37.1153883,16.5054348 36.5039806,17.4305435 36.0535146,18.4948913 C35.6030485,19.5592391 35.3778155,20.6972826 35.3778155,21.9090217 C35.3778155,23.1207609 35.594932,24.2505435 36.0292718,25.2984783 Z" id="Shape"></path>
                <path d="M59.8957476,16.8493478 C60.5391942,15.2773913 61.4242136,13.8938043 62.5502718,12.6984783 C63.6763301,11.5031522 65.0118155,10.5616304 66.556301,9.87391304 C68.1007864,9.18619565 69.7739612,8.8423913 71.5758252,8.8423913 C73.3455437,8.8423913 74.9865728,9.1698913 76.4989126,9.82478261 C78.0111456,10.4797826 79.3142718,11.388587 80.4082913,12.5511957 C81.5023107,13.7136957 82.3550777,15.0892391 82.9662718,16.6775 C83.5776796,18.2658696 83.8833301,19.9933696 83.8833301,21.8601087 L83.8833301,23.4811957 L63.8535049,23.4811957 C64.0144466,24.496413 64.3362233,25.4379348 64.818835,26.3056522 C65.3015534,27.1734783 65.9047379,27.9267391 66.6287087,28.5653261 C67.3526796,29.2040217 68.1731942,29.7034783 69.0902524,30.063587 C70.0073107,30.4238043 70.9805437,30.6040217 72.0102718,30.6040217 C74.9384078,30.6040217 77.3034078,29.3758696 79.1052718,26.9196739 L82.6285825,29.5722826 C81.4058738,31.2425 79.8936408,32.5525 78.0917767,33.5021739 C76.2898058,34.4518478 74.2627087,34.9267391 72.0103786,34.9267391 C70.1762621,34.9267391 68.462932,34.5991304 66.8701748,33.9442391 C65.2774175,33.2893478 63.8938738,32.3722826 62.7194369,31.1932609 C61.545,30.0142391 60.619932,28.6306522 59.944233,27.0423913 C59.268534,25.4541304 58.930631,23.7265217 58.930631,21.8598913 C58.930631,20.0915217 59.252301,18.4213043 59.8957476,16.8493478 Z M66.6769806,14.908913 C65.3094563,16.0715217 64.4005146,17.618913 63.9500485,19.551087 L78.9604563,19.551087 C78.5421359,17.618913 77.6492136,16.0715217 76.2816893,14.908913 C74.914165,13.746413 73.3133981,13.1651087 71.4793883,13.1651087 C69.6452718,13.1651087 68.0445049,13.746413 66.6769806,14.908913 Z" id="Shape"></path>
                <path d="M93.0051068,15.4738043 C91.9754854,16.62 91.4606214,18.1755435 91.4606214,20.1405435 L91.4606214,34.386413 L86.5858058,34.386413 L86.5858058,9.33347826 L91.4122427,9.33347826 L91.4122427,12.4282609 C92.0236505,11.4130435 92.8200291,10.6106522 93.8013786,10.0211957 C94.7827282,9.43163043 95.9491553,9.13684783 97.3006602,9.13684783 L98.9898544,9.13684783 L98.9898544,13.7544565 L96.9627573,13.7544565 C95.3539806,13.7545652 94.0347282,14.3276087 93.0051068,15.4738043 Z" id="Path"></path>
            </g>
        </g>
    </g>
</svg>

<svg width="99" height="35" xmlns="http://www.w3.org/2000/svg">
  <g fill="#FFF" fill-rule="nonzero">
    <path d="M5.695 24.98c.419 1.13.998 2.095 1.738 2.898a7.474 7.474 0 002.63 1.842c1.014.425 2.116.638 3.306.638a8.058 8.058 0 003.258-.663 8.013 8.013 0 002.655-1.867c.756-.802 1.343-1.76 1.762-2.873.418-1.114.627-2.358.627-3.734V0h5.068v34.386h-5.02v-3.193a11.633 11.633 0 01-3.982 2.8c-1.528.655-3.177.983-4.947.983-1.802 0-3.483-.32-5.044-.958a11.795 11.795 0 01-4.054-2.726C2.55 30.112 1.65 28.696.99 27.042.33 25.39 0 23.547 0 21.516V0h5.068v21.221c0 1.376.209 2.628.627 3.758zM35.474 0v12.526a12.904 12.904 0 013.91-2.726c1.48-.671 3.089-1.007 4.826-1.007 1.802 0 3.491.344 5.068 1.032a12.937 12.937 0 014.102 2.8c1.159 1.179 2.076 2.57 2.752 4.175a13.03 13.03 0 011.013 5.109c0 1.801-.338 3.496-1.013 5.084a13.266 13.266 0 01-2.752 4.151 12.937 12.937 0 01-4.102 2.8c-1.577.688-3.266 1.032-5.068 1.032-1.737 0-3.354-.336-4.85-1.007a12.815 12.815 0 01-3.934-2.727v3.144H30.6V0h4.874zm.555 25.298a8.558 8.558 0 001.81 2.751 8.729 8.729 0 002.703 1.867c1.03.459 2.14.688 3.33.688 1.159 0 2.253-.23 3.282-.688a8.44 8.44 0 002.68-1.867 9.123 9.123 0 001.809-2.75 8.49 8.49 0 00.676-3.39c0-1.212-.226-2.35-.676-3.414a9.042 9.042 0 00-1.81-2.776 8.12 8.12 0 00-2.679-1.842 8.231 8.231 0 00-3.282-.663 8.229 8.229 0 00-3.282.663 8.395 8.395 0 00-2.702 1.842 8.823 8.823 0 00-1.834 2.776 8.668 8.668 0 00-.676 3.414c0 1.212.217 2.342.651 3.39zM59.896 16.85a13.39 13.39 0 012.654-4.152 12.331 12.331 0 014.006-2.824c1.545-.688 3.218-1.032 5.02-1.032 1.77 0 3.41.328 4.923.983a11.672 11.672 0 013.91 2.726c1.093 1.163 1.946 2.538 2.557 4.126.612 1.589.917 3.316.917 5.183v1.621h-20.03a8.5 8.5 0 00.966 2.825 8.487 8.487 0 001.81 2.26 8.244 8.244 0 002.461 1.498c.917.36 1.89.54 2.92.54 2.928 0 5.293-1.228 7.095-3.684l3.524 2.652a13.172 13.172 0 01-4.537 3.93c-1.802.95-3.83 1.425-6.082 1.425-1.834 0-3.547-.328-5.14-.983a12.498 12.498 0 01-4.15-2.75 13.063 13.063 0 01-2.776-4.152c-.675-1.588-1.013-3.315-1.013-5.182 0-1.768.321-3.439.965-5.01zm6.781-1.941c-1.368 1.163-2.276 2.71-2.727 4.642h15.01c-.418-1.932-1.31-3.48-2.678-4.642-1.368-1.163-2.969-1.744-4.803-1.744s-3.434.581-4.802 1.744zM93.005 15.474c-1.03 1.146-1.544 2.702-1.544 4.667v14.245h-4.875V9.333h4.826v3.095a6.92 6.92 0 012.39-2.407c.98-.59 2.147-.884 3.499-.884h1.689v4.617h-2.027c-1.609 0-2.928.574-3.958 1.72z"/>
  </g>
</svg>
